icons/angular.svg

<?xml version="1.0" encoding="UTF-8" standalone="no"?>
<svg  viewBox="0 0 256 272" version="1.1" xmlns="http://www.w3.org/2000/svg" xmlns:xlink="http://www.w3.org/1999/xlink" preserveAspectRatio="xMidYMid">
	<g>
		<path d="M0.0996108949,45.522179 L125.908171,0.697276265 L255.103502,44.7252918 L234.185214,211.175097 L125.908171,271.140856 L19.3245136,211.971984 L0.0996108949,45.522179 Z" fill="#E23237"></path>
		<path d="M255.103502,44.7252918 L125.908171,0.697276265 L125.908171,271.140856 L234.185214,211.274708 L255.103502,44.7252918 L255.103502,44.7252918 Z" fill="#B52E31"></path>
		<path d="M126.107393,32.27393 L126.107393,32.27393 L47.7136187,206.692607 L76.9992218,206.194553 L92.7377432,166.848249 L126.207004,166.848249 L126.306615,166.848249 L163.063035,166.848249 L180.29572,206.692607 L208.286381,207.190661 L126.107393,32.27393 L126.107393,32.27393 Z M126.306615,88.155642 L152.803113,143.5393 L127.402335,143.5393 L126.107393,143.5393 L102.997665,143.5393 L126.306615,88.155642 L126.306615,88.155642 Z" fill="#FFFFFF"></path>
	</g>
</svg>

<?xml version="1.0" encoding="UTF-8" standalone="no"?>
<svg
   xmlns:dc="http://purl.org/dc/elements/1.1/"
   xmlns:cc="http://creativecommons.org/ns#"
   xmlns:rdf="http://www.w3.org/1999/02/22-rdf-syntax-ns#"
   xmlns:svg="http://www.w3.org/2000/svg"
   xmlns="http://www.w3.org/2000/svg"
   xmlns:sodipodi="http://sodipodi.sourceforge.net/DTD/sodipodi-0.dtd"
   xmlns:inkscape="http://www.inkscape.org/namespaces/inkscape"
   viewBox="0 0 255.00389 270.44357"
   version="1.1"
   preserveAspectRatio="xMidYMid"
   id="svg839"
   sodipodi:docname="angular.svg"
   width="255.00389"
   height="270.44357"
   inkscape:version="0.92.4 (5da689c313, 2019-01-14)">
  <metadata
     id="metadata845">
    <rdf:RDF>
      <cc:Work
         rdf:about="">
        <dc:format>image/svg+xml</dc:format>
        <dc:type
           rdf:resource="http://purl.org/dc/dcmitype/StillImage" />
      </cc:Work>
    </rdf:RDF>
  </metadata>
  <defs
     id="defs843" />
  <sodipodi:namedview
     pagecolor="#ffffff"
     bordercolor="#666666"
     borderopacity="1"
     objecttolerance="10"
     gridtolerance="10"
     guidetolerance="10"
     inkscape:pageopacity="0"
     inkscape:pageshadow="2"
     inkscape:window-width="1920"
     inkscape:window-height="1017"
     id="namedview841"
     showgrid="false"
     inkscape:zoom="2.2097087"
     inkscape:cx="197.48827"
     inkscape:cy="111.14961"
     inkscape:window-x="-8"
     inkscape:window-y="-8"
     inkscape:window-maximized="1"
     inkscape:current-layer="svg839" />
  <g
     id="g837"
     transform="translate(-0.09961089,-0.69727627)">
    <path
       d="M 0.09961089,45.522179 125.90817,0.69727626 255.1035,44.725292 234.18521,211.1751 125.90817,271.14086 19.324514,211.97198 Z"
       id="path831"
       inkscape:connector-curvature="0"
       style="fill:#e23237" />
    <path
       d="M 255.1035,44.725292 125.90817,0.69727626 V 271.14086 l 108.27704,-59.86615 z"
       id="path833"
       inkscape:connector-curvature="0"
       style="fill:#b52e31" />
    <path
       d="m 126.10739,32.27393 v 0 l -78.393771,174.41868 29.285603,-0.49806 15.738521,-39.3463 h 33.469257 0.0996 36.75643 l 17.23268,39.84436 27.99066,0.49805 -82.17899,-174.91673 z m 0.19922,55.881712 26.4965,55.383658 h -25.40078 -1.29494 -23.10973 z"
       id="path835"
       inkscape:connector-curvature="0"
       style="fill:#ffffff" />
  </g>
</svg>
